X: 3
T: Ben Hill
R: reel
M: 4/4
L: 1/8
K: Gmaj
dedB cBAB|G2 (3BAG DG (3BAG|AGAB cBAG|EAAG ABce|dedB cBAB|G2 (3BAG DG (3BAG|AGAB cdef|gdcA BGGB:||:dggf edBd|eaab ageg|fdad bdad|g3e dcBc|dggf gdBd|eaab agef|g3e dcBc|dBcA BGGB:|


Tune 6899	Setting 6899

